;FLAVOR:Marlin
;TIME:2217
;Filament used: 1.12748m
;Layer height: 0.1
;Generated with Cura_SteamEngine DEV
M190 S60
M104 S215
M109 S215
M82 ;absolute extrusion mode
G21 ; set units to millimeters
G90 ; use absolute positioning
M82 ; absolute extrusion mode
M104 S215 ; set extruder temp
M140 S60 ; set bed temp
M190 S60 ; wait for bed temp
M109 S215 ; wait for extruder temp
G28 W ; home all without mesh bed level
G80 ; mesh bed leveling
G92 E0.0 ; reset extruder distance position
G1 Y-3.0 F1000.0 ; go outside print area
G1 X60.0 E9.0 F1000.0 ; intro line
G1 X100.0 E21.5 F1000.0 ; intro line
G92 E0.0 ; reset extruder distance position
;LAYER_COUNT:80
;LAYER:0
M107
G0 F3600 X116.531 Y87.987 Z0.15
;TYPE:SKIRT
G1 F1800 X116.864 Y87.567 E0.01337
G1 X117.256 Y87.201 E0.02675
G1 X117.698 Y86.898 E0.04012
G1 X118.181 Y86.663 E0.05352
G1 X118.692 Y86.503 E0.06687
G1 X119.222 Y86.42 E0.08025
G1 X119.509 Y86.409 E0.08742
G1 X142.491 Y86.41 E0.66071
G1 X143.026 Y86.45 E0.67409
G1 X143.549 Y86.569 E0.68747
G1 X144.048 Y86.764 E0.70083
G1 X144.513 Y87.032 E0.71422
G1 X144.933 Y87.365 E0.72759
G1 X145.299 Y87.757 E0.74097
G1 X145.603 Y88.199 E0.75435
G1 X145.837 Y88.682 E0.76774
G1 X145.997 Y89.193 E0.7811
G1 X146.08 Y89.723 E0.79448
G1 X146.091 Y90.01 E0.80164
G1 X146.091 Y119.991 E1.54952
G1 X146.051 Y120.526 E1.56291
G1 X145.932 Y121.049 E1.57629
G1 X145.737 Y121.548 E1.58965
G1 X145.469 Y122.013 E1.60304
G1 X145.136 Y122.433 E1.61641
G1 X144.744 Y122.799 E1.62979
G1 X144.302 Y123.102 E1.64315
G1 X143.819 Y123.337 E1.65655
G1 X143.308 Y123.497 E1.66991
G1 X142.778 Y123.58 E1.68329
G1 X142.491 Y123.591 E1.69046
G1 X119.509 Y123.591 E2.26375
G1 X118.974 Y123.551 E2.27713
G1 X118.451 Y123.432 E2.29051
G1 X117.952 Y123.237 E2.30387
G1 X117.487 Y122.969 E2.31726
G1 X117.067 Y122.636 E2.33063
G1 X116.701 Y122.244 E2.34401
G1 X116.398 Y121.802 E2.35738
G1 X116.163 Y121.319 E2.37078
G1 X116.003 Y120.808 E2.38413
G1 X115.92 Y120.278 E2.39751
G1 X115.909 Y119.991 E2.40468
G1 X115.909 Y90.009 E3.15258
G1 X115.949 Y89.474 E3.16597
G1 X116.068 Y88.951 E3.17935
G1 X116.263 Y88.452 E3.19271
G1 X116.531 Y87.987 E3.2061
G0 F3600 X116.928 Y88.117
G1 F1800 X117.258 Y87.734 E3.21871
G1 X117.645 Y87.408 E3.23133
G1 X118.078 Y87.147 E3.24394
G1 X118.546 Y86.957 E3.25654
G1 X119.039 Y86.844 E3.26916
G1 X119.509 Y86.809 E3.28092
G1 X142.491 Y86.81 E3.85421
G1 X142.995 Y86.85 E3.86682
G1 X143.487 Y86.969 E3.87944
G1 X143.953 Y87.164 E3.89205
G1 X144.383 Y87.429 E3.90464
G1 X144.766 Y87.76 E3.91727
G1 X145.092 Y88.146 E3.92988
G1 X145.353 Y88.579 E3.94249
G1 X145.543 Y89.047 E3.95509
G1 X145.656 Y89.54 E3.9677
G1 X145.691 Y90.01 E3.97946
G1 X145.691 Y119.991 E4.72734
G1 X145.651 Y120.495 E4.73995
G1 X145.532 Y120.986 E4.75255
G1 X145.338 Y121.453 E4.76517
G1 X145.072 Y121.883 E4.77778
G1 X144.742 Y122.266 E4.79039
G1 X144.355 Y122.592 E4.80302
G1 X143.922 Y122.853 E4.81563
G1 X143.454 Y123.043 E4.82823
G1 X142.961 Y123.156 E4.84084
G1 X142.491 Y123.191 E4.8526
G1 X119.509 Y123.191 E5.42589
G1 X119.005 Y123.151 E5.4385
G1 X118.514 Y123.032 E5.4511
G1 X118.047 Y122.838 E5.46372
G1 X117.617 Y122.572 E5.47633
G1 X117.234 Y122.242 E5.48894
G1 X116.908 Y121.855 E5.50156
G1 X116.647 Y121.422 E5.51418
G1 X116.457 Y120.954 E5.52678
G1 X116.344 Y120.461 E5.53939
G1 X116.309 Y119.991 E5.55115
G1 X116.309 Y90.009 E6.29905
G1 X116.349 Y89.505 E6.31166
G1 X116.468 Y89.014 E6.32427
G1 X116.662 Y88.547 E6.33688
G1 X116.928 Y88.117 E6.34949
G1 F2100 E5.54949
G0 F3600 X118.835 Y90.614
G0 X120.114 Y90.614
G0 X141.83 Y119.33
G0 X141.9 Y119.4
;TYPE:WALL-INNER
G1 F2100 E6.34949
G1 F1800 X120.1 Y119.4 E6.8933
G1 X120.1 Y90.6 E7.61172
G1 X141.9 Y90.6 E8.15552
G1 X141.9 Y119.4 E8.87394
G0 F3600 X142.3 Y119.8
;TYPE:WALL-OUTER
G1 F1800 X119.7 Y119.8 E9.4377
G1 X119.7 Y90.2 E10.17607
G1 X142.3 Y90.2 E10.73983
G1 X142.3 Y119.8 E11.47821
G0 F3600 X142.1 Y119.8
G0 X141.83 Y119.33
G0 X141.51 Y119.01
;TYPE:SKIN
G1 F1800 X120.49 Y119.01 E12.00255
G1 X120.49 Y90.99 E12.70152
G1 X141.51 Y90.99 E13.22586
G1 X141.51 Y119.01 E13.92482
G0 F3600 X121.092 Y118.83
G1 F1800 X120.669 Y118.406 E13.93976
G0 F3600 X120.669 Y117.84
G1 F1800 X121.658 Y118.83 E13.97467
G1 X121.728 Y118.9
G0 F3600 X122.224 Y118.83
G1 F1800 X120.669 Y117.275 E14.02953
G1 X120.599 Y117.205
G0 F3600 X120.669 Y116.709
G1 F1800 X122.789 Y118.83 E14.10433
G1 X122.859 Y118.9
G0 F3600 X123.355 Y118.83
G1 F1800 X120.669 Y116.143 E14.19911
G1 X120.599 Y116.073
G0 F3600 X120.669 Y115.578
G1 F1800 X123.921 Y118.83 E14.31383
G1 X123.991 Y118.9
G0 F3600 X124.486 Y118.83
G1 F1800 X120.669 Y115.012 E14.4485
G1 X120.599 Y114.942
G0 F3600 X120.669 Y114.446
G1 F1800 X125.052 Y118.83 E14.60314
G1 X125.122 Y118.9
G0 F3600 X125.618 Y118.83
G1 F1800 X120.669 Y113.88 E14.77775
G1 X120.599 Y113.81
G0 F3600 X120.669 Y113.315
G1 F1800 X126.183 Y118.83 E14.97229
G1 X126.253 Y118.9
G0 F3600 X126.749 Y118.83
G1 F1800 X120.669 Y112.749 E15.18679
G1 X120.599 Y112.679
G0 F3600 X120.669 Y112.183
G1 F1800 X127.315 Y118.83 E15.42127
G1 X127.385 Y118.9
G0 F3600 X127.88 Y118.83
G1 F1800 X120.669 Y111.618 E15.67567
G1 X120.599 Y111.548
G0 F3600 X120.669 Y111.052
G1 F1800 X128.446 Y118.83 E15.95005
G1 X128.516 Y118.9
G0 F3600 X129.012 Y118.83
G1 F1800 X120.669 Y110.486 E16.24439
G1 X120.599 Y110.416
G0 F3600 X120.669 Y109.921
G1 F1800 X129.578 Y118.83 E16.55867
G1 X129.648 Y118.9
G0 F3600 X130.143 Y118.83
G1 F1800 X120.669 Y109.355 E16.89291
G1 X120.599 Y109.285
G0 F3600 X120.669 Y108.789
G1 F1800 X130.709 Y118.83 E17.24712
G1 X130.779 Y118.9
G0 F3600 X131.275 Y118.83
G1 F1800 X120.669 Y108.224 E17.62127
G1 X120.599 Y108.154
G0 F3600 X120.669 Y107.658
G1 F1800 X131.84 Y118.83 E18.01538
G1 X131.91 Y118.9
G0 F3600 X132.406 Y118.83
G1 F1800 X120.669 Y107.092 E18.42945
G1 X120.599 Y107.022
G0 F3600 X120.669 Y106.527
G1 F1800 X132.972 Y118.83 E18.86347
G1 X133.042 Y118.9
G0 F3600 X133.537 Y118.83
G1 F1800 X120.669 Y105.961 E19.31744
G1 X120.599 Y105.891
G0 F3600 X120.669 Y105.395
G1 F1800 X134.103 Y118.83 E19.79138
G1 X134.173 Y118.9
G0 F3600 X134.669 Y118.83
G1 F1800 X120.669 Y104.829 E20.28529
G1 X120.599 Y104.759
G0 F3600 X120.669 Y104.264
G1 F1800 X135.234 Y118.83 E20.79912
G1 X135.304 Y118.9
G0 F3600 X135.8 Y118.83
G1 F1800 X120.669 Y103.698 E21.33293
G1 X120.599 Y103.628
G0 F3600 X120.669 Y103.132
G1 F1800 X136.366 Y118.83 E21.8867
G1 X136.436 Y118.9
G0 F3600 X136.931 Y118.83
G1 F1800 X120.669 Y102.567 E22.4604
G1 X120.599 Y102.497
G0 F3600 X120.669 Y102.001
G1 F1800 X137.497 Y118.83 E23.05407
G1 X137.567 Y118.9
G0 F3600 X138.063 Y118.83
G1 F1800 X120.669 Y101.435 E23.66771
G1 X120.599 Y101.365
G0 F3600 X120.669 Y100.87
G1 F1800 X138.628 Y118.83 E24.30128
G1 X138.698 Y118.9
G0 F3600 X139.194 Y118.83
G1 F1800 X120.669 Y100.304 E24.95482
G1 X120.599 Y100.234
G0 F3600 X120.669 Y99.738
G1 F1800 X139.76 Y118.83 E25.62832
G1 X139.83 Y118.9
G0 F3600 X140.326 Y118.83
G1 F1800 X120.669 Y99.173 E26.32178
G1 X120.599 Y99.103
G0 F3600 X120.669 Y98.607
G1 F1800 X140.891 Y118.83 E27.03518
G1 X140.961 Y118.9
G0 F3600 X141.329 Y118.702
G1 F1800 X120.669 Y98.041 E27.76404
G1 X120.599 Y97.971
G0 F3600 X120.669 Y97.476
G1 F1800 X141.329 Y118.136 E28.49287
G1 X141.399 Y118.206
G0 F3600 X141.329 Y117.57
G1 F1800 X120.669 Y96.91 E29.22171
G1 X120.599 Y96.84
G0 F3600 X120.669 Y96.344
G1 F1800 X141.329 Y117.004 E29.95055
G1 X141.399 Y117.074
G0 F3600 X141.329 Y116.439
G1 F1800 X120.669 Y95.779 E30.67939
G1 X120.599 Y95.709
G0 F3600 X120.669 Y95.213
G1 F1800 X141.329 Y115.873 E31.40822
G1 X141.399 Y115.943
G0 F3600 X141.329 Y115.307
G1 F1800 X120.669 Y94.647 E32.13706
G1 X120.599 Y94.577
G0 F3600 X120.669 Y94.081
G1 F1800 X141.329 Y114.742 E32.86591
G1 X141.399 Y114.812
G0 F3600 X141.329 Y114.176
G1 F1800 X120.669 Y93.516 E33.59475
G1 X120.599 Y93.446
G0 F3600 X120.669 Y92.95
G1 F1800 X141.329 Y113.61 E34.32359
G1 X141.399 Y113.68
G0 F3600 X141.329 Y113.045
G1 F1800 X120.669 Y92.384 E35.05244
G1 X120.599 Y92.314
G0 F3600 X120.669 Y91.819
G1 F1800 X141.329 Y112.479 E35.78128
G1 X141.399 Y112.549
G0 F3600 X141.329 Y111.913
G1 F1800 X120.669 Y91.253 E36.51012
G1 X120.599 Y91.183
G0 F3600 X121.151 Y91.17
G1 F1800 X141.329 Y111.348 E37.22195
G1 X141.399 Y111.418
G0 F3600 X141.329 Y110.782
G1 F1800 X121.717 Y91.17 E37.91382
G1 X121.647 Y91.1
G0 F3600 X122.282 Y91.17
G1 F1800 X141.329 Y110.216 E38.58574
G1 X141.399 Y110.286
G0 F3600 X141.329 Y109.651
G1 F1800 X122.848 Y91.17 E39.2377
G1 X122.778 Y91.1
G0 F3600 X123.414 Y91.17
G1 F1800 X141.329 Y109.085 E39.8697
G1 X141.399 Y109.155
G0 F3600 X141.329 Y108.519
G1 F1800 X123.979 Y91.17 E40.48175
G1 X123.909 Y91.1
G0 F3600 X124.545 Y91.17
G1 F1800 X141.329 Y107.953 E41.07384
G1 X141.399 Y108.023
G0 F3600 X141.329 Y107.388
G1 F1800 X125.111 Y91.17 E41.64597
G1 X125.041 Y91.1
G0 F3600 X125.676 Y91.17
G1 F1800 X141.329 Y106.822 E42.19815
G1 X141.399 Y106.892
G0 F3600 X141.329 Y106.256
G1 F1800 X126.242 Y91.17 E42.73037
G1 X126.172 Y91.1
G0 F3600 X126.808 Y91.17
G1 F1800 X141.329 Y105.691 E43.24264
G1 X141.399 Y105.761
G0 F3600 X141.329 Y105.125
G1 F1800 X127.373 Y91.17 E43.73496
G1 X127.303 Y91.1
G0 F3600 X127.939 Y91.17
G1 F1800 X141.329 Y104.559 E44.20731
G1 X141.399 Y104.629
G0 F3600 X141.329 Y103.994
G1 F1800 X128.505 Y91.17 E44.65971
G1 X128.435 Y91.1
G0 F3600 X129.071 Y91.17
G1 F1800 X141.329 Y103.428 E45.09214
G1 X141.399 Y103.498
G0 F3600 X141.329 Y102.862
G1 F1800 X129.636 Y91.17 E45.50463
G1 X129.566 Y91.1
G0 F3600 X130.202 Y91.17
G1 F1800 X141.329 Y102.297 E45.89716
G1 X141.399 Y102.367
G0 F3600 X141.329 Y101.731
G1 F1800 X130.768 Y91.17 E46.26973
G1 X130.698 Y91.1
G0 F3600 X131.333 Y91.17
G1 F1800 X141.329 Y101.165 E46.62235
G1 X141.399 Y101.235
G0 F3600 X141.329 Y100.6
G1 F1800 X131.899 Y91.17 E46.95502
G1 X131.829 Y91.1
G0 F3600 X132.465 Y91.17
G1 F1800 X141.329 Y100.034 E47.26772
G1 X141.399 Y100.104
G0 F3600 X141.329 Y99.468
G1 F1800 X133.03 Y91.17 E47.56047
G1 X132.96 Y91.1
G0 F3600 X133.596 Y91.17
G1 F1800 X141.329 Y98.903 E47.83327
G1 X141.399 Y98.973
G0 F3600 X141.329 Y98.337
G1 F1800 X134.162 Y91.17 E48.08611
G1 X134.092 Y91.1
G0 F3600 X134.727 Y91.17
G1 F1800 X141.329 Y97.771 E48.31899
G1 X141.399 Y97.841
G0 F3600 X141.329 Y97.205
G1 F1800 X135.293 Y91.17 E48.53191
G1 X135.223 Y91.1
G0 F3600 X135.859 Y91.17
G1 F1800 X141.329 Y96.64 E48.72488
G1 X141.399 Y96.71
G0 F3600 X141.329 Y96.074
G1 F1800 X136.424 Y91.17 E48.8979
G1 X136.354 Y91.1
G0 F3600 X136.99 Y91.17
G1 F1800 X141.329 Y95.508 E49.05095
G1 X141.399 Y95.578
G0 F3600 X141.329 Y94.943
G1 F1800 X137.556 Y91.17 E49.18406
G1 X137.486 Y91.1
G0 F3600 X138.121 Y91.17
G1 F1800 X141.329 Y94.377 E49.29721
G1 X141.399 Y94.447
G0 F3600 X141.329 Y93.811
G1 F1800 X138.687 Y91.17 E49.3904
G1 X138.617 Y91.1
G0 F3600 X139.253 Y91.17
G1 F1800 X141.329 Y93.246 E49.46363
G1 X141.399 Y93.316
G0 F3600 X141.329 Y92.68
G1 F1800 X139.819 Y91.17 E49.5169
G1 X139.749 Y91.1
G0 F3600 X140.384 Y91.17
G1 F1800 X141.329 Y92.114 E49.55022
G1 X141.399 Y92.184
G0 F3600 X141.329 Y91.549
G1 F1800 X140.95 Y91.17 E49.56359
G0 F3600 X141.83 Y119.33
G0 X141.9 Y119.4
;TIME_ELAPSED:75.590925
;LAYER:1
M140 S60
M106 S255
G0 F5400 X141.9 Y119.4 Z0.25
;TYPE:WALL-INNER
G1 F2700 X120.1 Y119.4 E49.92613
G1 X120.1 Y90.6 E50.40507
G1 X141.9 Y90.6 E50.76761
G1 X141.9 Y119.4 E51.24655
G0 F5400 X142.3 Y119.8
;TYPE:WALL-OUTER
G1 F1800 X119.7 Y119.8 E51.62239
G1 X119.7 Y90.2 E52.11464
G1 X142.3 Y90.2 E52.49048
G1 X142.3 Y119.8 E52.98273
G0 F5400 X142.1 Y119.8
G0 X141.83 Y119.33
G0 X141.51 Y119.01
;TYPE:SKIN
G1 F1800 X120.49 Y119.01 E53.3323
G1 X120.49 Y90.99 E53.79827
G1 X141.51 Y90.99 E54.14784
G1 X141.51 Y119.01 E54.61381
G0 F5400 X141.328 Y118.32
G1 F1800 X140.819 Y118.83 E54.62579
G0 F5400 X140.253 Y118.83
G1 F1800 X141.328 Y117.755 E54.65108
G1 X141.398 Y117.685
G0 F5400 X141.328 Y117.189
G1 F1800 X139.688 Y118.83 E54.68966
G1 X139.618 Y118.9
G0 F5400 X139.122 Y118.83
G1 F1800 X141.328 Y116.623 E54.74155
G1 X141.398 Y116.553
G0 F5400 X141.328 Y116.058
G1 F1800 X138.556 Y118.83 E54.80674
G1 X138.486 Y118.9
G0 F5400 X137.991 Y118.83
G1 F1800 X141.328 Y115.492 E54.88524
G1 X141.398 Y115.422
G0 F5400 X141.328 Y114.926
G1 F1800 X137.425 Y118.83 E54.97704
G1 X137.355 Y118.9
G0 F5400 X136.859 Y118.83
G1 F1800 X141.328 Y114.361 E55.08215
G1 X141.398 Y114.291
G0 F5400 X141.328 Y113.795
G1 F1800 X136.294 Y118.83 E55.20055
G1 X136.224 Y118.9
G0 F5400 X135.728 Y118.83
G1 F1800 X141.328 Y113.229 E55.33226
G1 X141.398 Y113.159
G0 F5400 X141.328 Y112.664
G1 F1800 X135.162 Y118.83 E55.47728
G1 X135.092 Y118.9
G0 F5400 X134.597 Y118.83
G1 F1800 X141.328 Y112.098 E55.63559
G1 X141.398 Y112.028
G0 F5400 X141.328 Y111.532
G1 F1800 X134.031 Y118.83 E55.80722
G1 X133.961 Y118.9
G0 F5400 X133.465 Y118.83
G1 F1800 X141.328 Y110.966 E55.99216
G1 X141.398 Y110.896
G0 F5400 X141.328 Y110.401
G1 F1800 X132.9 Y118.83 E56.19038
G1 X132.83 Y118.9
G0 F5400 X132.334 Y118.83
G1 F1800 X141.328 Y109.835 E56.40192
G1 X141.398 Y109.765
G0 F5400 X141.328 Y109.269
G1 F1800 X131.768 Y118.83 E56.62677
G1 X131.698 Y118.9
G0 F5400 X131.202 Y118.83
G1 F1800 X141.328 Y108.704 E56.86492
G1 X141.398 Y108.634
G0 F5400 X141.328 Y108.138
G1 F1800 X130.637 Y118.83 E57.11636
G1 X130.567 Y118.9
G0 F5400 X130.071 Y118.83
G1 F1800 X141.328 Y107.572 E57.38112
G1 X141.398 Y107.502
G0 F5400 X141.328 Y107.007
G1 F1800 X129.505 Y118.83 E57.65918
G1 X129.435 Y118.9
G0 F5400 X128.94 Y118.83
G1 F1800 X141.328 Y106.441 E57.95054
G1 X141.398 Y106.371
G0 F5400 X141.328 Y105.875
G1 F1800 X128.374 Y118.83 E58.25521
G1 X128.304 Y118.9
G0 F5400 X127.808 Y118.83
G1 F1800 X141.328 Y105.31 E58.57318
G1 X141.398 Y105.24
G0 F5400 X141.328 Y104.744
G1 F1800 X127.243 Y118.83 E58.90445
G1 X127.173 Y118.9
G0 F5400 X126.677 Y118.83
G1 F1800 X141.328 Y104.178 E59.24903
G1 X141.398 Y104.108
G0 F5400 X141.328 Y103.613
G1 F1800 X126.111 Y118.83 E59.60691
G1 X126.041 Y118.9
G0 F5400 X125.546 Y118.83
G1 F1800 X141.328 Y103.047 E59.97809
G1 X141.398 Y102.977
G0 F5400 X141.328 Y102.481
G1 F1800 X124.98 Y118.83 E60.36258
G1 X124.91 Y118.9
G0 F5400 X124.414 Y118.83
G1 F1800 X141.328 Y101.916 E60.76037
G1 X141.398 Y101.846
G0 F5400 X141.328 Y101.35
G1 F1800 X123.849 Y118.83 E61.17146
G1 X123.779 Y118.9
G0 F5400 X123.283 Y118.83
G1 F1800 X141.328 Y100.784 E61.59587
G1 X141.398 Y100.714
G0 F5400 X141.328 Y100.218
G1 F1800 X122.717 Y118.83 E62.03358
G1 X122.647 Y118.9
G0 F5400 X122.151 Y118.83
G1 F1800 X141.328 Y99.653 E62.48459
G1 X141.398 Y99.583
G0 F5400 X141.328 Y99.087
G1 F1800 X121.586 Y118.83 E62.94891
G1 X121.516 Y118.9
G0 F5400 X121.02 Y118.83
G1 F1800 X141.328 Y98.521 E63.42653
G1 X141.398 Y98.451
G0 F5400 X141.328 Y97.956
G1 F1800 X120.669 Y118.615 E63.9124
G1 X120.599 Y118.685
G0 F5400 X120.669 Y118.049
G1 F1800 X141.328 Y97.39 E64.39827
G1 X141.398 Y97.32
G0 F5400 X141.328 Y96.824
G1 F1800 X120.669 Y117.483 E64.88414
G1 X120.599 Y117.553
G0 F5400 X120.669 Y116.917
G1 F1800 X141.328 Y96.259 E65.36999
G1 X141.398 Y96.189
G0 F5400 X141.328 Y95.693
G1 F1800 X120.669 Y116.352 E65.85586
G1 X120.599 Y116.422
G0 F5400 X120.669 Y115.786
G1 F1800 X141.328 Y95.127 E66.34173
G1 X141.398 Y95.057
G0 F5400 X141.328 Y94.562
G1 F1800 X120.669 Y115.22 E66.82759
G1 X120.599 Y115.29
G0 F5400 X120.669 Y114.655
G1 F1800 X141.328 Y93.996 E67.31345
G1 X141.398 Y93.926
G0 F5400 X141.328 Y93.43
G1 F1800 X120.669 Y114.089 E67.79932
G1 X120.599 Y114.159
G0 F5400 X120.669 Y113.523
G1 F1800 X141.328 Y92.865 E68.28518
G1 X141.398 Y92.795
G0 F5400 X141.328 Y92.299
G1 F1800 X120.669 Y112.958 E68.77105
G1 X120.599 Y113.028
G0 F5400 X120.669 Y112.392
G1 F1800 X141.328 Y91.733 E69.25691
G1 X141.398 Y91.663
G0 F5400 X141.326 Y91.17
G1 F1800 X120.669 Y111.826 E69.74272
G1 X120.599 Y111.896
G0 F5400 X120.669 Y111.261
G1 F1800 X140.76 Y91.17 E70.21523
G1 X140.83 Y91.1
G0 F5400 X140.195 Y91.17
G1 F1800 X120.669 Y110.695 E70.67444
G1 X120.599 Y110.765
G0 F5400 X120.669 Y110.129
G1 F1800 X139.629 Y91.17 E71.12034
G1 X139.699 Y91.1
G0 F5400 X139.063 Y91.17
G1 F1800 X120.669 Y109.564 E71.55294
G1 X120.599 Y109.634
G0 F5400 X120.669 Y108.998
G1 F1800 X138.498 Y91.17 E71.97224
G1 X138.568 Y91.1
G0 F5400 X137.932 Y91.17
