;FLAVOR:Marlin
;TIME:1681
;Filament used: 0.755776m
;Layer height: 0.1
;Generated with Cura_SteamEngine DEV
M190 S60
M104 S215
M109 S215
M82 ;absolute extrusion mode
G21 ; set units to millimeters
G90 ; use absolute positioning
M82 ; absolute extrusion mode
M104 S215 ; set extruder temp
M140 S60 ; set bed temp
M190 S60 ; wait for bed temp
M109 S215 ; wait for extruder temp
G28 W ; home all without mesh bed level
G80 ; mesh bed leveling
G92 E0.0 ; reset extruder distance position
G1 Y-3.0 F1000.0 ; go outside print area
G1 X60.0 E9.0 F1000.0 ; intro line
G1 X100.0 E21.5 F1000.0 ; intro line
G92 E0.0 ; reset extruder distance position
;LAYER_COUNT:80
;LAYER:0
M107
G0 F3600 X114.469 Y87.419 Z0.15
;TYPE:SKIRT
G1 F1800 X114.866 Y87.016 E0.01411
G1 X115.315 Y86.673 E0.02821
G1 X115.808 Y86.397 E0.0423
G1 X116.336 Y86.193 E0.05642
G1 X116.887 Y86.066 E0.07053
G1 X117.45 Y86.017 E0.08462
G1 X117.877 Y86.034 E0.09528
G1 X120.609 Y86.286 E0.16372
G1 X121.133 Y86.369 E0.17696
G1 X122.245 Y86.623 E0.20541
G1 X122.571 Y86.713 E0.21385
G1 X123.964 Y87.158 E0.25032
G1 X124.33 Y87.295 E0.26007
G1 X125.678 Y87.876 E0.29669
G1 X126.028 Y88.047 E0.30641
G1 X127.305 Y88.752 E0.34279
G1 X127.636 Y88.957 E0.35251
G1 X128.83 Y89.777 E0.38864
G1 X129.214 Y90.076 E0.40078
G1 X132.417 Y92.905 E0.50738
G1 X136.639 Y96.413 E0.64431
G1 X141.03 Y99.66 E0.78054
G1 X142.744 Y100.829 E0.83229
G1 X143.188 Y101.18 E0.84641
G1 X143.577 Y101.589 E0.86049
G1 X143.905 Y102.05 E0.8746
G1 X144.164 Y102.552 E0.88869
G1 X144.351 Y103.086 E0.90281
G1 X144.46 Y103.641 E0.91692
G1 X144.49 Y104.133 E0.92921
G1 X144.49 Y105.867 E0.97247
G1 X144.45 Y106.431 E0.98657
G1 X144.331 Y106.984 E1.00068
G1 X144.135 Y107.514 E1.01478
G1 X143.867 Y108.011 E1.02886
G1 X143.531 Y108.466 E1.04297
G1 X143.134 Y108.869 E1.05708
G1 X142.814 Y109.123 E1.06727
G1 X137.677 Y112.79 E1.22472
G1 X133.449 Y116.206 E1.36031
G1 X129.798 Y119.461 E1.48232
G1 X129.556 Y119.66 E1.49014
G1 X128.404 Y120.535 E1.52622
G1 X128.087 Y120.753 E1.53582
G1 X126.84 Y121.523 E1.57238
G1 X126.493 Y121.715 E1.58227
G1 X125.143 Y122.374 E1.61975
G1 X124.78 Y122.529 E1.62959
G1 X123.417 Y123.035 E1.66586
G1 X123.047 Y123.152 E1.67554
G1 X121.624 Y123.528 E1.71225
G1 X121.267 Y123.605 E1.72136
G1 X120.181 Y123.788 E1.74884
G1 X119.805 Y123.834 E1.75829
G1 X117.805 Y123.979 E1.80831
G1 X117.24 Y123.979 E1.8224
G1 X116.68 Y123.901 E1.8365
G1 X116.137 Y123.744 E1.8506
G1 X115.621 Y123.512 E1.86472
G1 X115.144 Y123.21 E1.8788
G1 X114.713 Y122.843 E1.89292
G1 X114.339 Y122.419 E1.90703
G1 X114.028 Y121.947 E1.92113
G1 X113.787 Y121.436 E1.93522
G1 X113.62 Y120.896 E1.94932
G1 X113.531 Y120.337 E1.96344
G1 X113.516 Y119.99 E1.9721
G1 X113.51 Y90.018 E2.71976
G1 X113.55 Y89.454 E2.73386
G1 X113.669 Y88.901 E2.74797
G1 X113.864 Y88.371 E2.76206
G1 X114.133 Y87.873 E2.77618
G1 X114.469 Y87.419 E2.79027
G0 F3600 X114.864 Y87.575
G1 F1800 X115.257 Y87.21 E2.80365
G1 X115.699 Y86.906 E2.81703
G1 X116.181 Y86.671 E2.83041
G1 X116.693 Y86.511 E2.84379
G1 X117.223 Y86.428 E2.85717
G1 X117.841 Y86.432 E2.87258
G1 X120.573 Y86.684 E2.94102
G1 X121.044 Y86.759 E2.95292
G1 X122.156 Y87.013 E2.98137
G1 X122.449 Y87.094 E2.98896
G1 X123.842 Y87.539 E3.02544
G1 X124.172 Y87.662 E3.03422
G1 X125.52 Y88.243 E3.07084
G1 X125.835 Y88.397 E3.07958
G1 X127.112 Y89.102 E3.11597
G1 X127.41 Y89.286 E3.12471
G1 X128.604 Y90.106 E3.16084
G1 X128.949 Y90.376 E3.17177
G1 X132.143 Y93.197 E3.27807
G1 X136.39 Y96.726 E3.41581
G1 X140.795 Y99.983 E3.55247
G1 X142.519 Y101.159 E3.60453
G1 X142.938 Y101.494 E3.61791
G1 X143.303 Y101.886 E3.63127
G1 X143.606 Y102.329 E3.64466
G1 X143.839 Y102.812 E3.65804
G1 X143.998 Y103.324 E3.67141
G1 X144.079 Y103.854 E3.68478
G1 X144.09 Y104.133 E3.69175
G1 X144.09 Y105.867 E3.735
G1 X144.05 Y106.402 E3.74839
G1 X143.931 Y106.925 E3.76177
G1 X143.736 Y107.424 E3.77513
G1 X143.468 Y107.889 E3.78852
G1 X143.135 Y108.309 E3.80189
G1 X142.582 Y108.797 E3.82029
G1 X137.441 Y112.467 E3.97785
G1 X133.182 Y115.909 E4.11445
G1 X129.532 Y119.162 E4.23642
G1 X129.314 Y119.342 E4.24347
G1 X128.162 Y120.217 E4.27955
G1 X127.876 Y120.413 E4.2882
G1 X126.629 Y121.183 E4.32476
G1 X126.317 Y121.355 E4.33365
G1 X124.967 Y122.014 E4.37112
G1 X124.641 Y122.154 E4.37997
G1 X123.278 Y122.66 E4.41624
G1 X122.945 Y122.766 E4.42496
G1 X121.522 Y123.142 E4.46167
G1 X121.2 Y123.211 E4.46989
G1 X120.114 Y123.394 E4.49736
G1 X119.776 Y123.435 E4.50585
G1 X117.776 Y123.58 E4.55587
G1 X117.24 Y123.578 E4.56925
G1 X116.71 Y123.498 E4.58262
G1 X116.198 Y123.339 E4.59599
G1 X115.715 Y123.106 E4.60937
G1 X115.272 Y122.804 E4.62274
G1 X114.878 Y122.439 E4.63614
G1 X114.544 Y122.02 E4.64951
G1 X114.275 Y121.556 E4.66288
G1 X114.078 Y121.057 E4.67627
G1 X113.958 Y120.534 E4.68965
G1 X113.916 Y119.99 E4.70326
G1 X113.91 Y90.018 E5.45092
G1 X113.95 Y89.483 E5.4643
G1 X114.069 Y88.96 E5.47768
G1 X114.264 Y88.46 E5.49107
G1 X114.531 Y87.996 E5.50442
G1 X114.864 Y87.575 E5.51781
G0 F3600 X114.929 Y88.125
G1 F1800 X115.259 Y87.743 E5.5304
G1 X115.645 Y87.416 E5.54302
G1 X116.078 Y87.155 E5.55563
G1 X116.547 Y86.965 E5.56826
G1 X117.039 Y86.852 E5.58085
G1 X117.544 Y86.817 E5.59348
G1 X117.804 Y86.831 E5.59997
G1 X120.536 Y87.083 E5.66841
G1 X120.955 Y87.149 E5.67899
G1 X122.067 Y87.403 E5.70745
G1 X122.328 Y87.475 E5.7142
G1 X123.721 Y87.92 E5.75068
G1 X124.014 Y88.029 E5.75848
G1 X125.362 Y88.61 E5.79509
G1 X125.642 Y88.748 E5.80288
G1 X126.919 Y89.453 E5.83927
G1 X127.184 Y89.616 E5.84703
G1 X128.378 Y90.436 E5.88316
G1 X128.684 Y90.675 E5.89285
G1 X131.907 Y93.521 E6.0001
G1 X136.142 Y97.04 E6.13746
G1 X140.571 Y100.315 E6.27486
G1 X142.293 Y101.49 E6.32686
G1 X142.687 Y101.807 E6.33948
G1 X143.026 Y102.182 E6.35209
G1 X143.302 Y102.605 E6.36469
G1 X143.507 Y103.067 E6.3773
G1 X143.638 Y103.556 E6.38992
G1 X143.69 Y104.133 E6.40438
G1 X143.69 Y105.867 E6.44763
G1 X143.65 Y106.371 E6.46024
G1 X143.531 Y106.862 E6.47285
G1 X143.337 Y107.329 E6.48546
G1 X143.071 Y107.759 E6.49807
G1 X142.741 Y108.142 E6.51068
G1 X142.349 Y108.471 E6.52345
G1 X137.204 Y112.144 E6.68114
G1 X132.936 Y115.593 E6.81803
G1 X129.266 Y118.864 E6.94066
G1 X129.073 Y119.023 E6.9469
G1 X127.921 Y119.898 E6.98298
G1 X127.666 Y120.073 E6.9907
G1 X126.419 Y120.843 E7.02726
G1 X126.142 Y120.996 E7.03515
G1 X124.792 Y121.655 E7.07262
G1 X124.502 Y121.779 E7.08049
G1 X123.139 Y122.285 E7.11676
G1 X122.842 Y122.379 E7.12453
G1 X121.419 Y122.755 E7.16125
G1 X121.134 Y122.817 E7.16852
G1 X120.048 Y123 E7.19599
G1 X119.747 Y123.036 E7.20356
G1 X117.747 Y123.181 E7.25358
G1 X117.242 Y123.177 E7.26617
G1 X116.743 Y123.094 E7.27879
G1 X116.264 Y122.934 E7.29139
G1 X115.816 Y122.7 E7.304
G1 X115.41 Y122.398 E7.31662
G1 X115.057 Y122.036 E7.32923
G1 X114.765 Y121.623 E7.34185
G1 X114.542 Y121.17 E7.35445
G1 X114.393 Y120.687 E7.36705
G1 X114.316 Y119.99 E7.38455
G1 X114.31 Y90.018 E8.1322
G1 X114.35 Y89.514 E8.14481
G1 X114.469 Y89.022 E8.15744
G1 X114.663 Y88.556 E8.17003
G1 X114.929 Y88.125 E8.18267
G1 F2100 E7.38267
G0 F3600 X116.835 Y90.645
G0 X118.113 Y90.645
G0 X131.815 Y105.201
G0 X131.884 Y105.273
;TYPE:WALL-INNER
G1 F2100 E8.18267
G1 F1800 X131.829 Y106.413 E8.21114
G1 X131.623 Y107.802 E8.24616
G1 X131.283 Y109.165 E8.28121
G1 X130.806 Y110.505 E8.31669
G1 X130.202 Y111.781 E8.3519
G1 X129.468 Y113.007 E8.38755
G1 X128.63 Y114.136 E8.42262
G1 X127.683 Y115.183 E8.45784
G1 X126.636 Y116.13 E8.49305
G1 X125.506 Y116.968 E8.52815
G1 X124.285 Y117.7 E8.56366
G1 X123.007 Y118.304 E8.59892
G1 X121.68 Y118.779 E8.63408
G1 X120.313 Y119.121 E8.66923
G1 X118.914 Y119.329 E8.70451
G1 X118.31 Y119.359 E8.7196
G1 X118.309 Y119.36 E8.71963
G1 X118.1 Y119.369 E8.72485
G1 X118.1 Y119.16 E8.72818
G1 X118.1 Y119.159 E8.72821
G1 X118.1 Y90.841 E9.4346
G1 X118.1 Y90.84 E9.43463
G1 X118.1 Y90.631 E9.43984
G1 X118.309 Y90.64 E9.44317
G1 X118.31 Y90.641 E9.44321
G1 X118.914 Y90.671 E9.45829
G1 X120.313 Y90.879 E9.49358
G1 X121.68 Y91.221 E9.52873
G1 X123.007 Y91.696 E9.56388
G1 X124.285 Y92.3 E9.59915
G1 X125.506 Y93.032 E9.63466
G1 X126.636 Y93.87 E9.66975
G1 X127.683 Y94.817 E9.70497
G1 X128.63 Y95.864 E9.74018
G1 X129.468 Y96.994 E9.77528
G1 X130.202 Y98.219 E9.8109
G1 X130.806 Y99.495 E9.84612
G1 X131.286 Y100.845 E9.88186
G1 X131.622 Y102.192 E9.91649
G1 X131.827 Y103.576 E9.95139
G1 X131.886 Y104.726 E9.98011
G1 X139.9 Y104.727 E10.18002
G1 X139.9 Y105.272 E10.19362
G1 X131.884 Y105.273 E10.39358
G0 F3600 X132.265 Y105.673
;TYPE:WALL-OUTER
G1 F1800 X132.228 Y106.451 E10.41301
G1 X132.017 Y107.876 E10.44894
G1 X131.666 Y109.282 E10.48509
G1 X131.175 Y110.66 E10.52158
G1 X130.557 Y111.968 E10.55767
G1 X129.804 Y113.225 E10.59422
G1 X128.937 Y114.393 E10.63051
G1 X127.966 Y115.466 E10.6666
G1 X126.893 Y116.437 E10.7027
G1 X125.724 Y117.304 E10.73901
G1 X124.472 Y118.055 E10.77543
G1 X123.16 Y118.675 E10.81163
G1 X121.801 Y119.161 E10.84763
G1 X120.387 Y119.515 E10.88399
G1 X118.952 Y119.728 E10.92018
G1 X117.909 Y119.78 E10.94623
G1 X117.7 Y119.79 E10.95145
G1 X117.7 Y119.581 E10.95478
G1 X117.7 Y119.58 E10.9548
G1 X117.7 Y90.42 E11.6822
G1 X117.7 Y90.419 E11.68223
G1 X117.7 Y90.21 E11.68744
G1 X117.909 Y90.22 E11.69077
G1 X118.952 Y90.272 E11.71683
G1 X120.387 Y90.485 E11.75301
G1 X121.801 Y90.839 E11.78937
G1 X123.16 Y91.325 E11.82538
G1 X124.472 Y91.945 E11.86158
G1 X125.724 Y92.696 E11.89799
G1 X126.893 Y93.563 E11.9343
G1 X127.966 Y94.534 E11.9704
G1 X128.937 Y95.607 E12.0065
G1 X129.804 Y96.776 E12.0428
G1 X130.557 Y98.032 E12.07933
G1 X131.175 Y99.34 E12.11542
G1 X131.669 Y100.728 E12.15217
G1 X132.016 Y102.118 E12.18791
G1 X132.225 Y103.528 E12.22347
G1 X132.266 Y104.326 E12.2434
G1 X140.3 Y104.327 E12.44381
G1 X140.3 Y105.672 E12.47736
G1 X132.265 Y105.673 E12.67779
G0 F3600 X132.256 Y105.873
G0 X131.757 Y105.849
G0 X131.439 Y106.378
;TYPE:SKIN
G1 F1800 X131.239 Y107.733 E12.71196
G1 X130.91 Y109.051 E12.74585
G1 X130.449 Y110.346 E12.78014
G1 X129.857 Y111.596 E12.81464
G1 X129.142 Y112.792 E12.8494
G1 X128.322 Y113.897 E12.88372
G1 X127.408 Y114.908 E12.91772
G1 X126.397 Y115.822 E12.95172
G1 X125.291 Y116.642 E12.98606
G1 X124.096 Y117.358 E13.02081
G1 X122.854 Y117.945 E13.05508
G1 X121.568 Y118.405 E13.08915
G1 X120.241 Y118.737 E13.12327
G1 X118.879 Y118.939 E13.15762
G1 X118.49 Y118.959 E13.16734
G1 X118.49 Y91.041 E13.86375
G1 X118.879 Y91.061 E13.87347
G1 X120.241 Y91.263 E13.90782
G1 X121.568 Y91.595 E13.94194
G1 X122.854 Y92.055 E13.97601
G1 X124.096 Y92.642 E14.01028
G1 X125.291 Y93.358 E14.04503
G1 X126.397 Y94.178 E14.07937
G1 X127.408 Y95.092 E14.11337
G1 X128.322 Y96.103 E14.14737
G1 X129.142 Y97.209 E14.18171
G1 X129.857 Y98.404 E14.21645
G1 X130.449 Y99.654 E14.25095
G1 X130.913 Y100.959 E14.2855
G1 X131.237 Y102.256 E14.31885
G1 X131.437 Y103.611 E14.35302
G1 X131.508 Y104.964 E14.38681
G1 X131.439 Y106.378 E14.42213
G0 F3600 X128.996 Y97.317
G1 F1800 X125.181 Y93.503 E14.5567
G1 X125.111 Y93.433
G0 F3600 X123.825 Y92.713
G1 F1800 X129.783 Y98.67 E14.76686
G1 X129.853 Y98.74
G0 F3600 X130.29 Y99.743
G1 F1800 X122.757 Y92.21 E15.03261
G1 X122.687 Y92.14
G0 F3600 X121.878 Y91.897
G1 F1800 X130.601 Y100.62 E15.34034
G1 X130.671 Y100.69
G0 F3600 X130.844 Y101.428
G1 F1800 X121.072 Y91.657 E15.68505
G1 X121.002 Y91.587
G0 F3600 X120.319 Y91.469
G1 F1800 X131.032 Y102.182 E16.06298
G1 X131.102 Y102.252
G0 F3600 X131.143 Y102.859
G1 F1800 X119.641 Y91.356 E16.46876
G1 X119.571 Y91.286
G0 F3600 X118.977 Y91.258
G1 F1800 X131.241 Y103.523 E16.90143
G1 X131.311 Y103.593
G0 F3600 X131.282 Y104.129
G1 F1800 X118.669 Y91.516 E17.34639
G1 X118.599 Y91.446
G0 F3600 X118.669 Y92.082
G1 F1800 X131.313 Y104.726 E17.79244
G1 X131.383 Y104.796
G0 F3600 X131.31 Y105.288
G1 F1800 X118.669 Y92.647 E18.23838
G1 X118.599 Y92.577
G0 F3600 X118.669 Y93.213
G1 F1800 X131.284 Y105.828 E18.68341
G1 X131.354 Y105.898
G0 F3600 X131.257 Y106.367
G1 F1800 X118.669 Y93.779 E19.12749
G1 X118.599 Y93.709
G0 F3600 X118.669 Y94.345
G1 F1800 X131.185 Y106.86 E19.569
G1 X131.255 Y106.93
G0 F3600 X131.112 Y107.353
G1 F1800 X118.669 Y94.91 E20.00796
G1 X118.599 Y94.84
G0 F3600 X118.669 Y95.476
G1 F1800 X131.027 Y107.834 E20.44393
G1 X131.097 Y107.904
G0 F3600 X130.915 Y108.287
G1 F1800 X118.669 Y96.042 E20.87592
G1 X118.599 Y95.972
G0 F3600 X118.669 Y96.607
G1 F1800 X130.802 Y108.74 E21.30394
G1 X130.872 Y108.81
G0 F3600 X130.674 Y109.177
G1 F1800 X118.669 Y97.173 E21.72743
G1 X118.599 Y97.103
G0 F3600 X118.669 Y97.739
G1 F1800 X130.526 Y109.595 E22.1457
G1 X130.596 Y109.665
G0 F3600 X130.377 Y110.013
G1 F1800 X118.669 Y98.304 E22.55875
G1 X118.599 Y98.234
G0 F3600 X118.669 Y98.87
G1 F1800 X130.216 Y110.417 E22.96611
G1 X130.286 Y110.487
G0 F3600 X130.034 Y110.8
G1 F1800 X118.669 Y99.436 E23.36702
G1 X118.599 Y99.366
G0 F3600 X118.669 Y100.001
G1 F1800 X129.851 Y111.184 E23.76151
G1 X129.921 Y111.254
G0 F3600 X129.665 Y111.563
G1 F1800 X118.669 Y100.567 E24.14943
G1 X118.599 Y100.497
G0 F3600 X118.669 Y101.133
G1 F1800 X129.454 Y111.918 E24.5299
G1 X129.524 Y111.988
G0 F3600 X129.242 Y112.272
G1 F1800 X118.669 Y101.698 E24.9029
G1 X118.599 Y101.628
G0 F3600 X118.669 Y102.264
G1 F1800 X129.031 Y112.626 E25.26845
G1 X129.101 Y112.696
G0 F3600 X128.795 Y112.956
G1 F1800 X118.669 Y102.83 E25.62567
G1 X118.599 Y102.76
G0 F3600 X118.669 Y103.395
G1 F1800 X128.554 Y113.281 E25.97441
G1 X128.624 Y113.351
G0 F3600 X128.313 Y113.605
G1 F1800 X118.669 Y103.961 E26.31463
G1 X118.599 Y103.891
G0 F3600 X118.669 Y104.527
G1 F1800 X128.06 Y113.918 E26.64592
G1 X128.13 Y113.988
G0 F3600 X127.791 Y114.215
G1 F1800 X118.669 Y105.093 E26.96773
G1 X118.599 Y105.023
G0 F3600 X118.669 Y105.658
G1 F1800 X127.523 Y114.512 E27.28007
G1 X127.593 Y114.582
G0 F3600 X127.251 Y114.806
G1 F1800 X118.669 Y106.224 E27.58283
G1 X118.599 Y106.154
G0 F3600 X118.669 Y106.79
G1 F1800 X126.954 Y115.075 E27.8751
G1 X127.024 Y115.145
G0 F3600 X126.657 Y115.343
G1 F1800 X118.669 Y107.355 E28.1569
G1 X118.599 Y107.285
G0 F3600 X118.669 Y107.921
G1 F1800 X126.359 Y115.611 E28.42819
G1 X126.429 Y115.681
G0 F3600 X126.042 Y115.86
G1 F1800 X118.669 Y108.487 E28.68829
G1 X118.599 Y108.417
G0 F3600 X118.669 Y109.052
G1 F1800 X125.717 Y116.1 E28.93693
G1 X125.787 Y116.17
G0 F3600 X125.392 Y116.341
G1 F1800 X118.669 Y109.618 E29.1741
G1 X118.599 Y109.548
G0 F3600 X118.669 Y110.184
G1 F1800 X125.056 Y116.571 E29.39942
G1 X125.126 Y116.641
G0 F3600 X124.703 Y116.783
G1 F1800 X118.669 Y110.749 E29.61228
G1 X118.599 Y110.679
G0 F3600 X118.669 Y111.315
G1 F1800 X124.348 Y116.995 E29.81264
G1 X124.418 Y117.065
G0 F3600 X123.994 Y117.206
G1 F1800 X118.669 Y111.881 E30.0005
G1 X118.599 Y111.811
G0 F3600 X118.669 Y112.446
G1 F1800 X123.61 Y117.388 E30.17482
G1 X123.68 Y117.458
G0 F3600 X123.226 Y117.569
G1 F1800 X118.669 Y113.012 E30.33558
G1 X118.599 Y112.942
G0 F3600 X118.669 Y113.578
G1 F1800 X122.842 Y117.75 E30.48278
G1 X122.912 Y117.82
G0 F3600 X122.43 Y117.905
G1 F1800 X118.669 Y114.144 E30.61546
G1 X118.599 Y114.074
G0 F3600 X118.669 Y114.709
G1 F1800 X122.014 Y118.054 E30.73346
G1 X122.084 Y118.124
G0 F3600 X121.597 Y118.203
G1 F1800 X118.669 Y115.275 E30.83675
G1 X118.599 Y115.205
G0 F3600 X118.669 Y115.841
G1 F1800 X121.151 Y118.323 E30.92431
G1 X121.221 Y118.393
G0 F3600 X120.698 Y118.436
G1 F1800 X118.669 Y116.406 E30.99591
G1 X118.599 Y116.336
G0 F3600 X118.669 Y116.972
G1 F1800 X120.247 Y118.549 E31.05156
G1 X120.317 Y118.619
G0 F3600 X119.757 Y118.626
G1 F1800 X118.669 Y117.538 E31.08994
G1 X118.599 Y117.468
G0 F3600 X118.669 Y118.103
G1 F1800 X119.264 Y118.699 E31.11095
G1 X119.334 Y118.769
G0 F3600 X118.763 Y118.763
G1 F1800 X118.669 Y118.669 E31.11427
G0 F3600 X131.962 Y105.092
G0 X131.869 Y104.999
G1 F1800 X132.152 Y104.999 E31.11755
G1 X132.435 Y104.999 E31.12083
G1 X132.717 Y104.999 E31.1241
G1 X133 Y104.999 E31.12739
G1 X133.283 Y104.999 E31.13067
G1 X133.566 Y104.999 E31.13395
G1 X133.849 Y104.999 E31.13723
G1 X134.132 Y104.999 E31.14052
G1 X134.414 Y104.999 E31.14379
G1 X134.697 Y104.999 E31.14707
G1 X134.98 Y104.999 E31.15035
G1 X135.263 Y104.999 E31.15364
G1 X135.546 Y104.999 E31.15692
G1 X135.829 Y104.999 E31.16018
