;FLAVOR:Marlin
;TIME:14754
;Filament used: 8.82428m
;Layer height: 0.1
;Generated with Cura_SteamEngine DEV
M190 S60
M104 S215
M109 S215
M82 ;absolute extrusion mode
G21 ; set units to millimeters
G90 ; use absolute positioning
M82 ; absolute extrusion mode
M104 S215 ; set extruder temp
M140 S60 ; set bed temp
M190 S60 ; wait for bed temp
M109 S215 ; wait for extruder temp
G28 W ; home all without mesh bed level
G80 ; mesh bed leveling
G92 E0.0 ; reset extruder distance position
G1 Y-3.0 F1000.0 ; go outside print area
G1 X60.0 E9.0 F1000.0 ; intro line
G1 X100.0 E21.5 F1000.0 ; intro line
G92 E0.0 ; reset extruder distance position
;LAYER_COUNT:400
;LAYER:0
M107
G0 F3600 X102.031 Y76.987 Z0.15
;TYPE:SKIRT
G1 F1800 X102.364 Y76.567 E0.01337
G1 X102.756 Y76.201 E0.02675
G1 X103.198 Y75.898 E0.04012
G1 X103.681 Y75.663 E0.05352
G1 X104.192 Y75.503 E0.06687
G1 X104.722 Y75.42 E0.08025
G1 X105.009 Y75.409 E0.08742
G1 X144.991 Y75.41 E1.08477
G1 X145.526 Y75.45 E1.09816
G1 X146.049 Y75.569 E1.11154
G1 X146.548 Y75.764 E1.1249
G1 X147.013 Y76.032 E1.13829
G1 X147.433 Y76.365 E1.15166
G1 X147.799 Y76.757 E1.16504
G1 X148.102 Y77.199 E1.17841
G1 X148.337 Y77.682 E1.1918
G1 X148.497 Y78.193 E1.20516
G1 X148.58 Y78.723 E1.21854
G1 X148.591 Y79.01 E1.22571
G1 X148.591 Y130.991 E2.52238
G1 X148.551 Y131.526 E2.53576
G1 X148.432 Y132.049 E2.54914
G1 X148.237 Y132.548 E2.56251
G1 X147.969 Y133.013 E2.57589
G1 X147.636 Y133.433 E2.58926
G1 X147.244 Y133.799 E2.60264
G1 X146.802 Y134.102 E2.61601
G1 X146.319 Y134.337 E2.62941
G1 X145.808 Y134.497 E2.64277
G1 X145.278 Y134.58 E2.65615
G1 X144.991 Y134.591 E2.66331
G1 X105.009 Y134.591 E3.66067
G1 X104.474 Y134.551 E3.67405
G1 X103.951 Y134.432 E3.68743
G1 X103.452 Y134.237 E3.70079
G1 X102.987 Y133.969 E3.71418
G1 X102.567 Y133.636 E3.72755
G1 X102.201 Y133.244 E3.74093
G1 X101.898 Y132.802 E3.7543
G1 X101.663 Y132.319 E3.7677
G1 X101.503 Y131.808 E3.78106
G1 X101.42 Y131.278 E3.79444
G1 X101.409 Y130.991 E3.8016
G1 X101.409 Y79.009 E5.0983
G1 X101.449 Y78.474 E5.11168
G1 X101.568 Y77.951 E5.12506
G1 X101.763 Y77.452 E5.13842
G1 X102.031 Y76.987 E5.15181
G0 F3600 X102.428 Y77.117
G1 F1800 X102.758 Y76.734 E5.16442
G1 X103.145 Y76.408 E5.17705
G1 X103.578 Y76.147 E5.18966
G1 X104.046 Y75.957 E5.20226
G1 X104.539 Y75.844 E5.21487
G1 X105.009 Y75.809 E5.22663
G1 X144.991 Y75.81 E6.22399
G1 X145.495 Y75.85 E6.2366
G1 X145.986 Y75.969 E6.2492
G1 X146.453 Y76.164 E6.26183
G1 X146.883 Y76.429 E6.27443
G1 X147.266 Y76.76 E6.28705
G1 X147.592 Y77.146 E6.29966
G1 X147.853 Y77.579 E6.31227
G1 X148.043 Y78.047 E6.32487
G1 X148.156 Y78.54 E6.33748
G1 X148.191 Y79.01 E6.34924
G1 X148.191 Y130.991 E7.64591
G1 X148.151 Y131.495 E7.65852
G1 X148.032 Y131.986 E7.67113
G1 X147.838 Y132.453 E7.68374
G1 X147.572 Y132.883 E7.69635
G1 X147.242 Y133.266 E7.70897
G1 X146.855 Y133.592 E7.72159
G1 X146.422 Y133.853 E7.7342
G1 X145.954 Y134.043 E7.7468
G1 X145.461 Y134.156 E7.75942
G1 X144.991 Y134.191 E7.77117
G1 X105.009 Y134.191 E8.76853
G1 X104.505 Y134.151 E8.78114
G1 X104.014 Y134.032 E8.79374
G1 X103.547 Y133.838 E8.80636
G1 X103.117 Y133.572 E8.81897
G1 X102.734 Y133.242 E8.83158
G1 X102.408 Y132.855 E8.8442
G1 X102.147 Y132.422 E8.85681
G1 X101.957 Y131.954 E8.86941
G1 X101.844 Y131.461 E8.88203
G1 X101.809 Y130.991 E8.89379
G1 X101.809 Y79.009 E10.19048
G1 X101.849 Y78.505 E10.2031
G1 X101.968 Y78.014 E10.2157
G1 X102.162 Y77.547 E10.22831
G1 X102.428 Y77.117 E10.24093
G1 F2100 E9.44093
G0 F3600 X104.335 Y79.614
G0 X105.614 Y79.614
G0 X144.33 Y130.33
G0 X144.4 Y130.4
;TYPE:WALL-INNER
G1 F2100 E10.24093
G1 F1800 X105.6 Y130.4 E11.2088
G1 X105.6 Y79.6 E12.47601
G1 X144.4 Y79.6 E13.44388
G1 X144.4 Y130.4 E14.71109
G0 F3600 X144.8 Y130.8
;TYPE:WALL-OUTER
G1 F1800 X105.2 Y130.8 E15.69891
G1 X105.2 Y79.2 E16.98608
G1 X144.8 Y79.2 E17.97391
G1 X144.8 Y130.8 E19.26107
G0 F3600 X144.6 Y130.8
G0 X144.33 Y130.33
G0 X144.01 Y130.01
;TYPE:SKIN
G1 F1800 X105.99 Y130.01 E20.20949
G1 X105.99 Y79.99 E21.45724
G1 X144.01 Y79.99 E22.40565
G1 X144.01 Y130.01 E23.65341
G0 F3600 X106.636 Y129.829
G1 F1800 X106.169 Y129.362 E23.66988
G0 F3600 X106.169 Y128.796
G1 F1800 X107.202 Y129.829 E23.70632
G1 X107.272 Y129.899
G0 F3600 X107.768 Y129.829
G1 F1800 X106.169 Y128.23 E23.76273
G1 X106.099 Y128.16
G0 F3600 X106.169 Y127.665
G1 F1800 X108.333 Y129.829 E23.83907
G1 X108.403 Y129.899
G0 F3600 X108.899 Y129.829
G1 F1800 X106.169 Y127.099 E23.93538
G1 X106.099 Y127.029
G0 F3600 X106.169 Y126.533
G1 F1800 X109.465 Y129.829 E24.05166
G1 X109.535 Y129.899
G0 F3600 X110.03 Y129.829
G1 F1800 X106.169 Y125.968 E24.18787
G1 X106.099 Y125.898
G0 F3600 X106.169 Y125.402
G1 F1800 X110.596 Y129.829 E24.34404
G1 X110.666 Y129.899
G0 F3600 X111.162 Y129.829
G1 F1800 X106.169 Y124.836 E24.52018
G1 X106.099 Y124.766
G0 F3600 X106.169 Y124.271
G1 F1800 X111.727 Y129.829 E24.71625
G1 X111.797 Y129.899
G0 F3600 X112.293 Y129.829
G1 F1800 X106.169 Y123.705 E24.9323
G1 X106.099 Y123.635
G0 F3600 X106.169 Y123.139
G1 F1800 X112.859 Y129.829 E25.1683
G1 X112.929 Y129.899
G0 F3600 X113.424 Y129.829
G1 F1800 X106.169 Y122.574 E25.42424
G1 X106.099 Y122.504
G0 F3600 X106.169 Y122.008
G1 F1800 X113.99 Y129.829 E25.70015
G1 X114.06 Y129.899
G0 F3600 X114.556 Y129.829
G1 F1800 X106.169 Y121.442 E25.99602
G1 X106.099 Y121.372
G0 F3600 X106.169 Y120.877
G1 F1800 X115.121 Y129.829 E26.31183
G1 X115.191 Y129.899
G0 F3600 X115.687 Y129.829
G1 F1800 X106.169 Y120.311 E26.6476
G1 X106.099 Y120.241
G0 F3600 X106.169 Y119.745
G1 F1800 X116.253 Y129.829 E27.00334
G1 X116.323 Y129.899
G0 F3600 X116.818 Y129.829
G1 F1800 X106.169 Y119.18 E27.37902
G1 X106.099 Y119.11
G0 F3600 X106.169 Y118.614
G1 F1800 X117.384 Y129.829 E27.77466
G1 X117.454 Y129.899
G0 F3600 X117.95 Y129.829
G1 F1800 X106.169 Y118.048 E28.19026
G1 X106.099 Y117.978
G0 F3600 X106.169 Y117.482
G1 F1800 X118.516 Y129.829 E28.62584
G1 X118.586 Y129.899
G0 F3600 X119.081 Y129.829
G1 F1800 X106.169 Y116.917 E29.08134
G1 X106.099 Y116.847
G0 F3600 X106.169 Y116.351
G1 F1800 X119.647 Y129.829 E29.55681
G1 X119.717 Y129.899
G0 F3600 X120.213 Y129.829
G1 F1800 X106.169 Y115.785 E30.05225
G1 X106.099 Y115.715
G0 F3600 X106.169 Y115.22
G1 F1800 X120.778 Y129.829 E30.56763
G1 X120.848 Y129.899
G0 F3600 X121.344 Y129.829
G1 F1800 X106.169 Y114.654 E31.10297
G1 X106.099 Y114.584
G0 F3600 X106.169 Y114.088
G1 F1800 X121.91 Y129.829 E31.65827
G1 X121.98 Y129.899
G0 F3600 X122.475 Y129.829
G1 F1800 X106.169 Y113.523 E32.23351
G1 X106.099 Y113.453
G0 F3600 X106.169 Y112.957
G1 F1800 X123.041 Y129.829 E32.82871
G1 X123.111 Y129.899
G0 F3600 X123.607 Y129.829
G1 F1800 X106.169 Y112.391 E33.44389
G1 X106.099 Y112.321
G0 F3600 X106.169 Y111.826
G1 F1800 X124.172 Y129.829 E34.07899
G1 X124.242 Y129.899
G0 F3600 X124.738 Y129.829
G1 F1800 X106.169 Y111.26 E34.73406
G1 X106.099 Y111.19
G0 F3600 X106.169 Y110.694
G1 F1800 X125.304 Y129.829 E35.4091
G1 X125.374 Y129.899
G0 F3600 X125.869 Y129.829
G1 F1800 X106.169 Y110.129 E36.10407
G1 X106.099 Y110.059
G0 F3600 X106.169 Y109.563
G1 F1800 X126.435 Y129.829 E36.81901
G1 X126.505 Y129.899
G0 F3600 X127.001 Y129.829
G1 F1800 X106.169 Y108.997 E37.55392
G1 X106.099 Y108.927
G0 F3600 X106.169 Y108.431
G1 F1800 X127.567 Y129.829 E38.30879
G1 X127.637 Y129.899
G0 F3600 X128.132 Y129.829
G1 F1800 X106.169 Y107.866 E39.08359
G1 X106.099 Y107.796
G0 F3600 X106.169 Y107.3
G1 F1800 X128.698 Y129.829 E39.87836
G1 X128.768 Y129.899
G0 F3600 X129.264 Y129.829
G1 F1800 X106.169 Y106.734 E40.6931
G1 X106.099 Y106.664
G0 F3600 X106.169 Y106.169
G1 F1800 X129.829 Y129.829 E41.52777
G1 X129.899 Y129.899
G0 F3600 X130.395 Y129.829
G1 F1800 X106.169 Y105.603 E42.38241
G1 X106.099 Y105.533
G0 F3600 X106.169 Y105.037
G1 F1800 X130.961 Y129.829 E43.25701
G1 X131.031 Y129.899
G0 F3600 X131.526 Y129.829
G1 F1800 X106.169 Y104.472 E44.15155
G1 X106.099 Y104.402
G0 F3600 X106.169 Y103.906
G1 F1800 X132.092 Y129.829 E45.06606
G1 X132.162 Y129.899
G0 F3600 X132.658 Y129.829
G1 F1800 X106.169 Y103.34 E46.00053
G1 X106.099 Y103.27
G0 F3600 X106.169 Y102.775
G1 F1800 X133.223 Y129.829 E46.95493
G1 X133.293 Y129.899
G0 F3600 X133.789 Y129.829
G1 F1800 X106.169 Y102.209 E47.9293
G1 X106.099 Y102.139
G0 F3600 X106.169 Y101.643
G1 F1800 X134.355 Y129.829 E48.92364
G1 X134.425 Y129.899
G0 F3600 X134.92 Y129.829
G1 F1800 X106.169 Y101.078 E49.93791
G1 X106.099 Y101.008
G0 F3600 X106.169 Y100.512
G1 F1800 X135.486 Y129.829 E50.97214
G1 X135.556 Y129.899
G0 F3600 X136.052 Y129.829
G1 F1800 X106.169 Y99.946 E52.02635
G1 X106.099 Y99.876
G0 F3600 X106.169 Y99.381
G1 F1800 X136.617 Y129.829 E53.10048
G1 X136.687 Y129.899
G0 F3600 X137.183 Y129.829
G1 F1800 X106.169 Y98.815 E54.19458
G1 X106.099 Y98.745
G0 F3600 X106.169 Y98.249
G1 F1800 X137.749 Y129.829 E55.30865
G1 X137.819 Y129.899
G0 F3600 X138.315 Y129.829
G1 F1800 X106.169 Y97.683 E56.44269
G1 X106.099 Y97.613
G0 F3600 X106.169 Y97.118
G1 F1800 X138.88 Y129.829 E57.59666
G1 X138.95 Y129.899
G0 F3600 X139.446 Y129.829
G1 F1800 X106.169 Y96.552 E58.7706
G1 X106.099 Y96.482
G0 F3600 X106.169 Y95.986
G1 F1800 X140.012 Y129.829 E59.9645
G1 X140.082 Y129.899
G0 F3600 X140.577 Y129.829
G1 F1800 X106.169 Y95.421 E61.17833
G1 X106.099 Y95.351
G0 F3600 X106.169 Y94.855
G1 F1800 X141.143 Y129.829 E62.41214
G1 X141.213 Y129.899
G0 F3600 X141.709 Y129.829
G1 F1800 X106.169 Y94.289 E63.66591
G1 X106.099 Y94.219
G0 F3600 X106.169 Y93.724
G1 F1800 X142.274 Y129.829 E64.93961
G1 X142.344 Y129.899
G0 F3600 X142.84 Y129.829
G1 F1800 X106.169 Y93.158 E66.23328
G1 X106.099 Y93.088
G0 F3600 X106.169 Y92.592
G1 F1800 X143.406 Y129.829 E67.54691
G1 X143.476 Y129.899
G0 F3600 X143.829 Y129.686
G1 F1800 X106.169 Y92.027 E68.87545
G1 X106.099 Y91.957
G0 F3600 X106.169 Y91.461
G1 F1800 X143.829 Y129.121 E70.20401
G1 X143.899 Y129.191
G0 F3600 X143.829 Y128.555
G1 F1800 X106.169 Y90.895 E71.53257
G1 X106.099 Y90.825
G0 F3600 X106.169 Y90.33
G1 F1800 X143.829 Y127.989 E72.86111
G1 X143.899 Y128.059
G0 F3600 X143.829 Y127.424
G1 F1800 X106.169 Y89.764 E74.18967
G1 X106.099 Y89.694
G0 F3600 X106.169 Y89.198
G1 F1800 X143.829 Y126.858 E75.51823
G1 X143.899 Y126.928
G0 F3600 X143.829 Y126.292
G1 F1800 X106.169 Y88.633 E76.84677
G1 X106.099 Y88.563
G0 F3600 X106.169 Y88.067
G1 F1800 X143.829 Y125.727 E78.17532
G1 X143.899 Y125.797
G0 F3600 X143.829 Y125.161
G1 F1800 X106.169 Y87.501 E79.50388
G1 X106.099 Y87.431
G0 F3600 X106.169 Y86.935
G1 F1800 X143.829 Y124.595 E80.83244
G1 X143.899 Y124.665
G0 F3600 X143.829 Y124.03
G1 F1800 X106.169 Y86.37 E82.161
G1 X106.099 Y86.3
G0 F3600 X106.169 Y85.804
G1 F1800 X143.829 Y123.464 E83.48956
G1 X143.899 Y123.534
G0 F3600 X143.829 Y122.898
G1 F1800 X106.169 Y85.238 E84.81811
G1 X106.099 Y85.168
G0 F3600 X106.169 Y84.673
G1 F1800 X143.829 Y122.333 E86.14667
G1 X143.899 Y122.403
G0 F3600 X143.829 Y121.767
G1 F1800 X106.169 Y84.107 E87.47523
G1 X106.099 Y84.037
G0 F3600 X106.169 Y83.541
G1 F1800 X143.829 Y121.201 E88.80379
G1 X143.899 Y121.271
G0 F3600 X143.829 Y120.635
G1 F1800 X106.169 Y82.976 E90.13233
G1 X106.099 Y82.906
G0 F3600 X106.169 Y82.41
G1 F1800 X143.829 Y120.07 E91.46089
G1 X143.899 Y120.14
G0 F3600 X143.829 Y119.504
G1 F1800 X106.169 Y81.844 E92.78945
G1 X106.099 Y81.774
G0 F3600 X106.169 Y81.279
G1 F1800 X143.829 Y118.938 E94.11799
G1 X143.899 Y119.008
G0 F3600 X143.829 Y118.373
G1 F1800 X106.169 Y80.713 E95.44655
G1 X106.099 Y80.643
G0 F3600 X106.191 Y80.17
G1 F1800 X143.829 Y117.807 E96.77431
G1 X143.899 Y117.877
G0 F3600 X143.829 Y117.241
G1 F1800 X106.757 Y80.17 E98.08211
G1 X106.687 Y80.1
G0 F3600 X107.323 Y80.17
G1 F1800 X143.829 Y116.676 E99.36995
G1 X143.899 Y116.746
G0 F3600 X143.829 Y116.11
G1 F1800 X107.888 Y80.17 E100.63785
G1 X107.818 Y80.1
G0 F3600 X108.454 Y80.17
G1 F1800 X143.829 Y115.544 E101.88578
G1 X143.899 Y115.614
G0 F3600 X143.829 Y114.979
G1 F1800 X109.02 Y80.17 E103.11377
G1 X108.95 Y80.1
G0 F3600 X109.585 Y80.17
G1 F1800 X143.829 Y114.413 E104.3218
G1 X143.899 Y114.483
G0 F3600 X143.829 Y113.847
G1 F1800 X110.151 Y80.17 E105.50986
G1 X110.081 Y80.1
G0 F3600 X110.717 Y80.17
G1 F1800 X143.829 Y113.282 E106.67798
G1 X143.899 Y113.352
G0 F3600 X143.829 Y112.716
G1 F1800 X111.283 Y80.17 E107.82613
G1 X111.213 Y80.1
G0 F3600 X111.848 Y80.17
G1 F1800 X143.829 Y112.15 E108.95432
G1 X143.899 Y112.22
G0 F3600 X143.829 Y111.584
G1 F1800 X112.414 Y80.17 E110.06256
G1 X112.344 Y80.1
G0 F3600 X112.98 Y80.17
G1 F1800 X143.829 Y111.019 E111.15084
G1 X143.899 Y111.089
G0 F3600 X143.829 Y110.453
G1 F1800 X113.545 Y80.17 E112.21917
G1 X113.475 Y80.1
G0 F3600 X114.111 Y80.17
G1 F1800 X143.829 Y109.887 E113.26753
G1 X143.899 Y109.957
G0 F3600 X143.829 Y109.322
G1 F1800 X114.677 Y80.17 E114.29595
G1 X114.607 Y80.1
G0 F3600 X115.242 Y80.17
G1 F1800 X143.829 Y108.756 E115.30442
G1 X143.899 Y108.826
G0 F3600 X143.829 Y108.19
G1 F1800 X115.808 Y80.17 E116.29291
G1 X115.738 Y80.1
G0 F3600 X116.374 Y80.17
G1 F1800 X143.829 Y107.625 E117.26146
G1 X143.899 Y107.695
G0 F3600 X143.829 Y107.059
G1 F1800 X116.939 Y80.17 E118.21006
G1 X116.869 Y80.1
G0 F3600 X117.505 Y80.17
G1 F1800 X143.829 Y106.493 E119.1387
G1 X143.899 Y106.563
G0 F3600 X143.829 Y105.928
G1 F1800 X118.071 Y80.17 E120.04738
G1 X118.001 Y80.1
G0 F3600 X118.636 Y80.17
G1 F1800 X143.829 Y105.362 E120.93611
G1 X143.899 Y105.432
G0 F3600 X143.829 Y104.796
G1 F1800 X119.202 Y80.17 E121.80488
G1 X119.132 Y80.1
G0 F3600 X119.768 Y80.17
G1 F1800 X143.829 Y104.231 E122.6537
G1 X143.899 Y104.301
G0 F3600 X143.829 Y103.665
G1 F1800 X120.334 Y80.17 E123.48255
G1 X120.264 Y80.1
G0 F3600 X120.899 Y80.17
G1 F1800 X143.829 Y103.099 E124.29145
G1 X143.899 Y103.169
G0 F3600 X143.829 Y102.534
G1 F1800 X121.465 Y80.17 E125.0804
G1 X121.395 Y80.1
G0 F3600 X122.031 Y80.17
G1 F1800 X143.829 Y101.968 E125.84938
G1 X143.899 Y102.038
G0 F3600 X143.829 Y101.402
G1 F1800 X122.596 Y80.17 E126.59841
G1 X122.526 Y80.1
G0 F3600 X123.162 Y80.17
G1 F1800 X143.829 Y100.836 E127.32748
G1 X143.899 Y100.906
G0 F3600 X143.829 Y100.271
G1 F1800 X123.728 Y80.17 E128.0366
G1 X123.658 Y80.1
G0 F3600 X124.293 Y80.17
G1 F1800 X143.829 Y99.705 E128.72576
G1 X143.899 Y99.775
G0 F3600 X143.829 Y99.139
G1 F1800 X124.859 Y80.17 E129.39496
G1 X124.789 Y80.1
G0 F3600 X125.425 Y80.17
G1 F1800 X143.829 Y98.574 E130.04422
G1 X143.899 Y98.644
G0 F3600 X143.829 Y98.008
G1 F1800 X125.99 Y80.17 E130.67352
G1 X125.92 Y80.1
G0 F3600 X126.556 Y80.17
G1 F1800 X143.829 Y97.442 E131.28285
G1 X143.899 Y97.512
G0 F3600 X143.829 Y96.877
G1 F1800 X127.122 Y80.17 E131.87224
G1 X127.052 Y80.1
G0 F3600 X127.687 Y80.17
G1 F1800 X143.829 Y96.311 E132.44167
G1 X143.899 Y96.381
G0 F3600 X143.829 Y95.745
G1 F1800 X128.253 Y80.17 E132.99114
G1 X128.183 Y80.1
G0 F3600 X128.819 Y80.17
G1 F1800 X143.829 Y95.18 E133.52066
G1 X143.899 Y95.25
G0 F3600 X143.829 Y94.614
G1 F1800 X129.384 Y80.17 E134.03022
G1 X129.314 Y80.1
G0 F3600 X129.95 Y80.17
G1 F1800 X143.829 Y94.048 E134.51983
G1 X143.899 Y94.118
G0 F3600 X143.829 Y93.483
G1 F1800 X130.516 Y80.17 E134.98948
G1 X130.446 Y80.1
G0 F3600 X131.082 Y80.17
G1 F1800 X143.829 Y92.917 E135.43916
G1 X143.899 Y92.987
G0 F3600 X143.829 Y92.351
G1 F1800 X131.647 Y80.17 E135.8689
G1 X131.577 Y80.1
G0 F3600 X132.213 Y80.17
G1 F1800 X143.829 Y91.785 E136.27867
G1 X143.899 Y91.855
G0 F3600 X143.829 Y91.22
G1 F1800 X132.779 Y80.17 E136.66849
G1 X132.709 Y80.1
G0 F3600 X133.344 Y80.17
G1 F1800 X143.829 Y90.654 E137.03835
G1 X143.899 Y90.724
G0 F3600 X143.829 Y90.088
G1 F1800 X133.91 Y80.17 E137.38826
G1 X133.84 Y80.1
G0 F3600 X134.476 Y80.17
G1 F1800 X143.829 Y89.523 E137.71821
G1 X143.899 Y89.593
G0 F3600 X143.829 Y88.957
G1 F1800 X135.041 Y80.17 E138.02821
G1 X134.971 Y80.1
G0 F3600 X135.607 Y80.17
G1 F1800 X143.829 Y88.391 E138.31825
G1 X143.899 Y88.461
G0 F3600 X143.829 Y87.826
G1 F1800 X136.173 Y80.17 E138.58833
G1 X136.103 Y80.1
G0 F3600 X136.738 Y80.17
G1 F1800 X143.829 Y87.26 E138.83847
G1 X143.899 Y87.33
G0 F3600 X143.829 Y86.694
G1 F1800 X137.304 Y80.17 E139.06864
G1 X137.234 Y80.1
G0 F3600 X137.87 Y80.17
G1 F1800 X143.829 Y86.129 E139.27886
G1 X143.899 Y86.199
G0 F3600 X143.829 Y85.563
